icons/lines/forward-square.svg

<svg xmlns="http://www.w3.org/2000/svg" width="24" height="24" viewBox="0 0 24 24" fill="none" stroke="currentColor" stroke-width="2" stroke-linecap="round" stroke-linejoin="round">
  <path d="M15 15.38h-4.92A3 3 0 0 1 7 12.3a3 3 0 0 1 3.08-3.08h6.77" />
  <path d="M15 22c5 0 7-2 7-7V9c0-5-2-7-7-7H9C4 2 2 4 2 9v6c0 5 2 7 7 7z" />
  <path d="M15.43 10.77 17 9.19l-1.57-1.57" />
</svg>

<svg xmlns="http://www.w3.org/2000/svg" width="24" height="24" viewBox="0 0 24 24" fill="none" stroke="currentColor" stroke-width="2" stroke-linecap="round" stroke-linejoin="round" >
  <path d="M9 22H15C20 22 22 20 22 15V9C22 4 20 2 15 2H9C4 2 2 4 2 9V15C2 20 4 22 9 22Z"/>
  <path d="M15 15.38H10.08C8.38 15.38 7 14 7 12.3C7 10.6 8.38 9.22 10.08 9.22H16.85" stroke-miterlimit="10"/>
  <path d="M15.4302 10.77L17.0002 9.18999L15.4302 7.62"/>
  </svg>
